X: 218b
T: Last Chance Polka
R: polka
M: 2/4
L: 1/8
R:Polka
K:Ador
E |"Am"A>B cd | ea e>d | cA AB/c/ |"G" dB GB |
"Am"A>B cd | ea e>d | cA "G"BG |"Am" A2 A :|
d|"Am"ea e>d | ea e>d | cA AB/c/ |"G" dB GB |
"Am"ea e>d | ea e>d | cA "G"BG |"Am" A2 A2 |
"Am"ea e>d | ea e>d | cA AB/c/ | "G"dB GB |
"Am"A>B cd | ea e>d | cA "G"BG |"Am" A2 A ||


